docs/img/all-services/14.svg

<svg width="80" height="80" viewBox="0 0 80 80" fill="none" xmlns="http://www.w3.org/2000/svg">
<path d="M62.2433 36.2501C63.555 45.9582 64.9769 56.096 75.1069 57.3238C75.1069 57.3238 69.4752 67.0518 57.2227 64.9341" stroke="#0098D0" stroke-width="2" stroke-miterlimit="10" stroke-linecap="round" stroke-linejoin="round"/>
<path d="M19.314 64.9341C7.061 67.0518 1.42969 57.3238 1.42969 57.3238C16.4256 55.5065 12.1394 34.6726 17.0465 23.6242C23.2286 9.70494 42.3584 7.08915 53.3977 15.7915" stroke="#0098D0" stroke-width="2" stroke-miterlimit="10" stroke-linecap="round" stroke-linejoin="round"/>
<path d="M55.606 40.6818C55.606 49.9411 54.6626 57.2904 49.8495 64.7394C47.1316 68.946 42.8266 71.4286 38.2505 71.4286C33.6739 71.4286 29.3696 68.9465 26.6517 64.7394C22.0359 57.3171 21.1213 45.2598 20.9401 40.772C20.5283 30.574 32.4064 24.2912 42.72 32.5037C42.7978 32.5659 42.879 32.632 42.9632 32.7016" stroke="#0098D0" stroke-width="2" stroke-miterlimit="10" stroke-linecap="round" stroke-linejoin="round"/>
<path d="M62.1411 12.3271L47.8448 26.7293C46.9684 27.6123 46.9684 29.0439 47.8448 29.9268L51.1914 33.2984" stroke="#0098D0" stroke-width="2" stroke-miterlimit="10" stroke-linecap="round" stroke-linejoin="round"/>
<path d="M72.009 22.2681L57.7127 36.6708C56.8363 37.5533 55.4154 37.5533 54.5395 36.6708L53.5294 35.6532L49.8508 39.3591C49.11 40.1055 47.9084 40.1055 47.1676 39.3591L45.1767 37.3535C44.4359 36.6072 44.4359 35.3967 45.1767 34.6508L48.8554 30.9444" stroke="#0098D0" stroke-width="2" stroke-miterlimit="10" stroke-linecap="round" stroke-linejoin="round"/>
<path d="M46.1725 38.3563L40.1133 44.4601" stroke="#0098D0" stroke-width="2" stroke-miterlimit="10" stroke-linecap="round" stroke-linejoin="round"/>
<path d="M76.7815 22.9549L61.4609 7.52075" stroke="#0098D0" stroke-width="2" stroke-miterlimit="10" stroke-linecap="round" stroke-linejoin="round"/>
<path d="M51.9766 22.5676L55.0494 25.6635" stroke="#0098D0" stroke-width="2" stroke-miterlimit="10" stroke-linecap="round" stroke-linejoin="round"/>
<path d="M55.2227 19.2977L58.295 22.3934" stroke="#0098D0" stroke-width="2" stroke-miterlimit="10" stroke-linecap="round" stroke-linejoin="round"/>
<path d="M58.4688 16.0278L61.5417 19.1236" stroke="#0098D0" stroke-width="2" stroke-miterlimit="10" stroke-linecap="round" stroke-linejoin="round"/>
<path d="M71.2188 17.3522L76.661 11.8694" stroke="#0098D0" stroke-width="2" stroke-miterlimit="10" stroke-linecap="round" stroke-linejoin="round"/>
<path d="M67.0195 13.1228L72.4618 7.64008" stroke="#0098D0" stroke-width="2" stroke-miterlimit="10" stroke-linecap="round" stroke-linejoin="round"/>
<path d="M78.5714 13.7952L70.5508 5.71429" stroke="#0098D0" stroke-width="2" stroke-miterlimit="10" stroke-linecap="round" stroke-linejoin="round"/>
<path d="M20.6423 25.2386L20.6423 25.2386C19.9245 26.8545 19.4256 28.7951 19.0213 30.9625C20.9595 29.1312 23.2159 27.6158 25.3083 26.5417L25.3083 26.5417C27.6583 25.3353 30.1909 24.7413 32.7697 24.7413C34.8835 24.7413 37.0189 25.1422 39.104 25.9216L47.2296 16.6423C44.4987 15.393 41.4068 14.7316 38.2609 14.7316C36.4622 14.7316 34.6509 14.9469 32.8838 15.3878L20.6423 25.2386ZM20.6423 25.2386C22.8214 20.3324 27.1423 16.8222 32.8836 15.3879L20.6423 25.2386Z" stroke="#0098D0" stroke-width="2"/>
</svg>

<svg width="80" height="80" fill="none" xmlns="http://www.w3.org/2000/svg"><path d="M62.243 36.25c1.312 9.708 2.734 19.846 12.864 21.074 0 0-5.632 9.728-17.884 7.61m-37.909 0C7.061 67.052 1.43 57.324 1.43 57.324c14.996-1.817 10.71-22.651 15.617-33.7 6.182-13.92 25.311-16.535 36.35-7.832" stroke="#0098D0" stroke-width="2" stroke-miterlimit="10" stroke-linecap="round" stroke-linejoin="round"/><path d="M55.606 40.682c0 9.26-.943 16.608-5.757 24.057-2.717 4.207-7.022 6.69-11.598 6.69-4.577 0-8.881-2.483-11.6-6.69-4.615-7.422-5.53-19.48-5.71-23.967-.413-10.198 11.465-16.48 21.779-8.268.078.062.159.128.243.198m19.178-20.375L47.845 26.73a2.273 2.273 0 000 3.198l3.346 3.371" stroke="#0098D0" stroke-width="2" stroke-miterlimit="10" stroke-linecap="round" stroke-linejoin="round"/><path d="M72.009 22.268L57.713 36.671a2.233 2.233 0 01-3.174 0l-1.01-1.018-3.678 3.706a1.888 1.888 0 01-2.683 0l-1.991-2.006a1.921 1.921 0 010-2.702l3.678-3.707m-2.683 7.412l-6.059 6.104m36.668-21.505L61.461 7.52m-9.484 15.048l3.072 3.095m.174-6.365l3.072 3.095m.174-6.365l3.073 3.096m9.677-1.772l5.442-5.483m-9.641 1.254l5.442-5.483m6.109 6.155l-8.02-8.08" stroke="#0098D0" stroke-width="2" stroke-miterlimit="10" stroke-linecap="round" stroke-linejoin="round"/><path d="M20.642 25.239h0c-.718 1.616-1.216 3.556-1.62 5.723 1.938-1.83 4.194-3.346 6.286-4.42h0a16.242 16.242 0 017.462-1.8c2.113 0 4.249.4 6.334 1.18l8.126-9.28c-2.731-1.249-5.823-1.91-8.97-1.91-1.798 0-3.61.215-5.376.656l-12.242 9.85zm0 0c2.18-4.907 6.5-8.417 12.242-9.851l-12.242 9.85z" stroke="#0098D0" stroke-width="2"/></svg>
